X: 21823
Q: "Slow."
M: 6/8
L: 1/8
K: Bb
(f2e) |\
(d2B) (c2A) | B2G F2B |\
c3 (c2e/d/) | c3 (f2e) |\
(d2B) (c2A) | B2G F2A |\
(d2e) (.f2.f) | (g2a) (.b2.g) |
f2d (dc)B | c3 (f2e) |\
(d2B) (c2A) | B2G F2B |\
c3 (c2e/d/) | c3 (f=e_e) |\
(d2B) (c2A) | B2G F2A |\
~B3 (d2c) | B3 |]


